X: 39
T: Missa De beata virgine / Sanctus
N: Derived from Rue1008d-Missa_De_beata_virgine-Sanctus.krn
C: Pierre de la Rue
%%abc-version 2.0
%%abcx-abcm2ps-target-version 5.9.1 (29 Sep 2008)
%%abc-creator hum2abc beta
%%abcx-conversion-date 2019/02/17 08:01:11
%%abc-edited-by Jesse Rodin
%%abc-edited-by Chris Gage 09-18-2012
%%abcx-initial-encoding-date 2012/09/18/
%%humdrum-veritas 2171954151
%%humdrum-veritas-data 1256939139
%%linebreak <none>
%%barnumbers 0
L: 1/4
M: 2/1
Q: 1/2=120
%%staves [1 2 3 4]
V: 1 clef=treble
V: 2 clef=treble-8
V: 3 clef=treble-8
V: 4 clef=bass
K: F
[V:1] z8 | 
[V:2] z8 | 
[V:3] c8- | 
[V:4] C4C2A,2- | 
[V:1] z4c4 | 
[V:2] c4c2A2- | 
[V:3] c8- | 
[V:4] A,2G,F,F,4 | 
[V:1] c2A4GF | 
[V:2] A2GFF4 | 
[V:3] c8- | 
[V:4] z4z2F,2 | 
[V:1] G2F2c4 | 
[V:2] z4F4 | 
[V:3] c8 | 
[V:4] E,2F,3G,A,2 | 
[V:1] d4f4 | 
[V:2] F2A4B2 | 
[V:3] A4F4 | 
[V:4] F,3E,D,4 | 
[V:1] e8 | 
[V:2] c3defg2- | 
[V:3] G8- | 
[V:4] C,8- | 
[V:1] z4c4 | 
[V:2] g2f4e2 | 
[V:3] G8 | 
[V:4] C,8 | 
[V:1] c2A4GF | 
[V:2] f4z2f2 | 
[V:3] F8 | 
[V:4] z4F,4 | 
[V:1] G2F2c3B | 
[V:2] e2a3ge2 | 
[V:3] c8 | 
[V:4] C,2F,3G,A,2 | 
[V:1] A2G4F2 | 
[V:2] f2c2d3c | 
[V:3] c4B2A2- | 
[V:4] F,3E,D,4 | 
[V:1] E2F4E2 | 
[V:2] A3Bc4 | 
[V:3] A2GFG4 | 
[V:4] C,8 | 
[V:1] F8 | 
[V:2] z8 | 
[V:3] F8- | 
[V:4] z4F,4 | 
[V:1] z4F4 | 
[V:2] F4F2A2- | 
[V:3] F8 | 
[V:4] F,2A,4G,F, | 
[V:1] F2A4GF | 
[V:2] A2GFA3B | 
[V:3] z8 | 
[V:4] A,3B,C4 | 
[V:1] A3Bc4 | 
[V:2] c6de | 
[V:3] z4F4 | 
[V:4] F,8 | 
[V:1] z2c4BA | 
[V:2] f8 | 
[V:3] F2A4GF | 
[V:4] z8 | 
[V:1] c3de4 | 
[V:2] e6fg | 
[V:3] A3Bc4 | 
[V:4] z8 | 
[V:1] f8 | 
[V:2] a8 | 
[V:3] z2c4BA | 
[V:4] F,8 | 
[V:1] e4edcB | 
[V:2] g8 | 
[V:3] c3de4 | 
[V:4] C,8 | 
[V:1] A3Bc2d2- | 
[V:2] z8 | 
[V:3] f8 | 
[V:4] F,3G,A,2B,2 | 
[V:1] d2c4=B2 | 
[V:2] g8 | 
[V:3] e4d4 | 
[V:4] C4G,4 | 
[V:1] c8 | 
[V:2] e3fg2fe | 
[V:3] c8 | 
[V:4] C,3D,E,2F,2- | 
[V:1] z4f4 | 
[V:2] dcc4=B2 | 
[V:3] z8 | 
[V:4] F,E,D,C,D,4 | 
[V:1] e2e4dc | 
[V:2] c6BA | 
[V:3] z8 | 
[V:4] C,8 | 
[V:1] d2c4BA | 
[V:2] B2A4GF | 
[V:3] f8 | 
[V:4] z8 | 
[V:1] G8 | 
[V:2] c6BA | 
[V:3] e8- | 
[V:4] C,8- | 
[V:1] z2c3de2 | 
[V:2] G2c4c2 | 
[V:3] e8 | 
[V:4] C,8 | 
[V:1] f2d4f2 | 
[V:2] A4B4 | 
[V:3] d8 | 
[V:4] D,8 | 
[V:1] e2g3fe2 | 
[V:2] c4c3d | 
[V:3] e3defg2- | 
[V:4] C,4z2C,2- | 
[V:1] dcc4=B2 | 
[V:2] efg4g2 | 
[V:3] g2fed4 | 
[V:4] C,D,E,F,G,4 | 
[V:1] c8 | 
[V:2] e2g4e2- | 
[V:3] c8- | 
[V:4] C,4z2C2- | 
[V:1] z8 | 
[V:2] e2c4f2- | 
[V:3] c8 | 
[V:4] C2A,4F,2- | 
[V:1] z2c4A2- | 
[V:2] f2c2c4 | 
[V:3] z8 | 
[V:4] F,2A,4F,2 | 
[V:1] A2F4c2- | 
[V:2] z2c2d2f2- | 
[V:3] z8 | 
[V:4] F,8- | 
[V:1] cBAGF2c2- | 
[V:2] fga4gf | 
[V:3] c8 | 
[V:4] F,8 | 
[V:1] c2BAG4 | 
[V:2] e2f4e2 | 
[V:3] c6B2 | 
[V:4] C,8 | 
[V:1] F8 | 
[V:2] f6e2 | 
[V:3] A2G2F4- | 
[V:4] z4F,4- | 
[V:1] z4F4- | 
[V:2] d2c2d4- | 
[V:3] F4B4- | 
[V:4] F,2E,2D,2C,2 | 
[V:1] F4F4 | 
[V:2] d4d4 | 
[V:3] B4B4 | 
[V:4] B,,8 | 
[V:1] F8 | 
[V:2] c8 | 
[V:3] A8 | 
[V:4] F,8 | 
[V:1] E6DC | 
[V:2] z4c4 | 
[V:3] G6FE | 
[V:4] C,8 | 
[V:1] E3FG2A2 | 
[V:2] g6fe | 
[V:3] G2A3Bc2 | 
[V:4] z4C,4 | 
[V:1] B4A2G2- | 
[V:2] d2e3dc2- | 
[V:3] d2B2c4 | 
[V:4] G,4F,2E,2 | 
[V:1] GFF4E2 | 
[V:2] c2B2c4 | 
[V:3] F4G4 | 
[V:4] D,4C,4 | 
[V:1] F8 ||  
[V:2] c8 ||  
[V:3] F8 ||  
[V:4] F,8 ||  
[V:1]  [K:F] [K:clef=treble][M:3/1]z12 | 
[V:2]  [K:F] [K:clef=treble-8][M:3/1]A6B2G4 | 
[V:3]  [K:F] [K:clef=treble-8][M:3/1]z12 | 
[V:4]  [K:F] [K:clef=bass][M:3/1]z12 | 
[V:1] A6B2G4 | 
[V:2] F8G4 | 
[V:3] z12 | 
[V:4] z12 | 
[V:1] F8G4 | 
[V:2] A2B2c2d2e4 | 
[V:3] z12 | 
[V:4] z12 | 
[V:1] A2B2c2d2e4 | 
[V:2] f8e4 | 
[V:3] z12 | 
[V:4] z12 | 
[V:1] f4e2d3cc2 | 
[V:2] d4c2B2c4 | 
[V:3] z12 | 
[V:4] z12 | 
[V:1] c8=B4 | 
[V:2] e4d8 | 
[V:3] z12 | 
[V:4] z4z4G,4 | 
[V:1] c12 | 
[V:2] c4z4c4 | 
[V:3] z12 | 
[V:4] A,4C8 | 
[V:1] z12 | 
[V:2] d4f8 | 
[V:3] z12 | 
[V:4] B,4A,6G,2 | 
[V:1] z12 | 
[V:2] e4d6c2 | 
[V:3] z12 | 
[V:4] G,8E,4 | 
[V:1] c4d4f4 | 
[V:2] c8B4 | 
[V:3] z12 | 
[V:4] F,4D,8 | 
[V:1] e4e2d4d2 | 
[V:2] c4c2B4B2 | 
[V:3] z12 | 
[V:4] C,4z4z4 | 
[V:1] c8B4 | 
[V:2] c4d4e4 | 
[V:3] z12 | 
[V:4] z4z4G,4 | 
[V:1] A4c6B2 | 
[V:2] f6e2c4 | 
[V:3] z12 | 
[V:4] F,4A,6G,2 | 
[V:1] G8d4 | 
[V:2] g6f2d4- | 
[V:3] z12 | 
[V:4] E,4G,6F,2 | 
[V:1] f6e2c4- | 
[V:2] d4a6g2 | 
[V:3] z12 | 
[V:4] D,8A,4 | 
[V:1] c4G4B4- | 
[V:2] e4g6f2 | 
[V:3] z12 | 
[V:4] C6B,2G,4 | 
[V:1] B2A2F4A4 | 
[V:2] d4f6e2 | 
[V:3] z12 | 
[V:4] B,6A,2F,4- | 
[V:1] c6B2G4 | 
[V:2] c4g6f2 | 
[V:3] z12 | 
[V:4] F,2E,2C,4G,4- | 
[V:1] d6c2A2B2 | 
[V:2] d2e2f6e2 | 
[V:3] z12 | 
[V:4] G,2F,2D,2E,2F,4- | 
[V:1] c8B4 | 
[V:2] c2d2e2f2g4 | 
[V:3] z12 | 
[V:4] F,2E,2C,2D,2E,4 | 
[V:1] A4G8 | 
[V:2] f8e4 | 
[V:3] z12 | 
[V:4] F,4C,8 | 
[V:1] [M:2/1]F8 | 
[V:2] [M:2/1]f8 | 
[V:3] [M:2/1]z8 | 
[V:4] [M:2/1]z4F,3G, | 
[V:1] z8 | 
[V:2] z8 | 
[V:3] A8 | 
[V:4] A,B,C3B,A,2- | 
[V:1] z8 | 
[V:2] z8 | 
[V:3] c8 | 
[V:4] A,2G,F,E,4 | 
[V:1] z4A4 | 
[V:2] z8 | 
[V:3] d4d2f2- | 
[V:4] D,8 | 
[V:1] c8 | 
[V:2] z4a4 | 
[V:3] f2f2e4 | 
[V:4] A,8 | 
[V:1] d8 | 
[V:2] a8 | 
[V:3] d8 | 
[V:4] z4D,4 | 
[V:1] z4c4 | 
[V:2] a8 | 
[V:3] z8 | 
[V:4] F,8 | 
[V:1] B6AG | 
[V:2] z4g4 | 
[V:3] d8- | 
[V:4] G,8 | 
[V:1] A2B4AG | 
[V:2] f2g3fd2- | 
[V:3] d8 | 
[V:4] z2G,4F,E, | 
[V:1] F2B4c2 | 
[V:2] dcB4A2- | 
[V:3] d4e2d2- | 
[V:4] D,2G,4F,2- | 
[V:1] d2e2f4 | 
[V:2] A2G4F2 | 
[V:3] d2c4=B2 | 
[V:4] F,2E,2D,4 | 
[V:1] e4e2c2- | 
[V:2] G4z2g2- | 
[V:3] c8 | 
[V:4] C,8 | 
[V:1] c2c2A2c2- | 
[V:2] g2e4c2 | 
[V:3] z4c4 | 
[V:4] C,4z4 | 
[V:1] c2F4c2- | 
[V:2] c4z4 | 
[V:3] c2A4F2 | 
[V:4] C4C2A,2- | 
[V:1] c2A4F2 | 
[V:2] f4f2d2- | 
[V:3] F8 | 
[V:4] A,2F,2F,4 | 
[V:1] F4z2F2- | 
[V:2] d2cBd2cB | 
[V:3] z4f4 | 
[V:4] z2F,4E,D, | 
[V:1] FGABc2d2- | 
[V:2] A4z2d2- | 
[V:3] d4e2f2- | 
[V:4] F,2E,D,C,2B,,2- | 
[V:1] d2c4=B2 | 
[V:2] d2g3fg2 | 
[V:3] fedcd4 | 
[V:4] B,,2C,2G,4 | 
[V:1] c2A2B2G2 | 
[V:2] e2f2d2e2 | 
[V:3] c4z2c2- | 
[V:4] z2F,2G,2E,2 | 
[V:1] A4F2G2 | 
[V:2] c2f4d2 | 
[V:3] c2d3cBA | 
[V:4] F,2D,4G,2- | 
[V:1] B2A4F2 | 
[V:2] e2f4f2 | 
[V:3] G2A4A2 | 
[V:4] G,2F,2D,4 | 
[V:1] G2B2A2F2 | 
[V:2] d2e2f4 | 
[V:3] B2G2A4 | 
[V:4] z2G,2F,2D,2 | 
[V:1] G2B2A2G2- | 
[V:2] d2e2f2d2 | 
[V:3] B2G2A2B2 | 
[V:4] G,4F,2G,2 | 
[V:1] GCF4E2 | 
[V:2] c2B2c4 | 
[V:3] c2F2G4 | 
[V:4] C,2D,2C,4 | 
[V:1] F8- | 
[V:2] c8- | 
[V:3] F8- | 
[V:4] z4F,4 | 
[V:1] F8 ||  
[V:2] c8 ||  
[V:3] F8 ||  
[V:4] F,8 ||  
[V:1]  [K:F] [K:clef=treble][M:2/1]z4c4 | 
[V:2]  [K:F] [K:clef=treble-8][M:2/1]f4e2c2 | 
[V:3]  [K:F] [K:clef=treble-8][M:2/1]z8 | 
[V:4]  [K:F] [K:clef=bass][M:2/1]z8 | 
[V:1] B2G2A2B2 | 
[V:2] d2e2f4 | 
[V:3] z8 | 
[V:4] z8 | 
[V:1] c4B4 | 
[V:2] e4z2g2- | 
[V:3] z8 | 
[V:4] z8 | 
[V:1] z2d4c2 | 
[V:2] g2f2d2e2 | 
[V:3] z8 | 
[V:4] z8 | 
[V:1] A2B2c2d2 | 
[V:2] f2g2a2g2- | 
[V:3] z8 | 
[V:4] z8 | 
[V:1] e2c4=B2 | 
[V:2] g2fed4 | 
[V:3] z8 | 
[V:4] z8 | 
[V:1] c8 | 
[V:2] c4z2c2 | 
[V:3] z8 | 
[V:4] z2C4A,2 | 
[V:1] z8 | 
[V:2] d2e2f2g2- | 
[V:3] z8 | 
[V:4] B,2C2D2C2- | 
[V:1] z8 | 
[V:2] g2f4e2 | 
[V:3] z8 | 
[V:4] C2B,A,G,4 | 
[V:1] z2c4A2 | 
[V:2] f8 | 
[V:3] z8 | 
[V:4] F,4z2F,2 | 
[V:1] B2c2d2c2- | 
[V:2] z2e2d2g2- | 
[V:3] z8 | 
[V:4] G,2A,2B,2C2 | 
[V:1] c2BAG4 | 
[V:2] g2f4e2 | 
[V:3] z8 | 
[V:4] F,4C4 | 
[V:1] F4z2c2 | 
[V:2] f4z4 | 
[V:3] z8 | 
[V:4] z2F,2G,2A,2 | 
[V:1] d2e2f2g2- | 
[V:2] z2e2a4- | 
[V:3] z8 | 
[V:4] B,2C2F,2C2 | 
[V:1] g2f4e2 | 
[V:2] a2gfg4 | 
[V:3] z8 | 
[V:4] D4C4 | 
[V:1] f2edc2f2- | 
[V:2] f8 | 
[V:3] z8 | 
[V:4] F,4z2F,2 | 
[V:1] f2e2d2e2- | 
[V:2] z8 | 
[V:3] z8 | 
[V:4] G,2A,2B,2C2- | 
[V:1] edc4=B2 | 
[V:2] z4f4 | 
[V:3] z8 | 
[V:4] CB,C2D4 | 
[V:1] c8 | 
[V:2] e2e4dc | 
[V:3] z8 | 
[V:4] C4z2C,2 | 
[V:1] z8 | 
[V:2] B3cA2d2- | 
[V:3] z8 | 
[V:4] D,2E,2F,2G,2 | 
[V:1] z8 | 
[V:2] d2c4=B2 | 
[V:3] z8 | 
[V:4] C,4D,4 | 
[V:1] c3BAGA2- | 
[V:2] c8 | 
[V:3] z8 | 
[V:4] C,3D,E,2F,2- | 
[V:1] A2GFE4 | 
[V:2] z8 | 
[V:3] z8 | 
[V:4] F,E,D,4C,2 | 
[V:1] D4z2d2 | 
[V:2] f3edcd2- | 
[V:3] z8 | 
[V:4] D,E,F,G,A,2B,2- | 
[V:1] d4c4 | 
[V:2] d2cBA4 | 
[V:3] z8 | 
[V:4] B,A,G,4^F,2 | 
[V:1] B2cd_e2d2- | 
[V:2] G4z2g2 | 
[V:3] z8 | 
[V:4] G,8 | 
[V:1] d2cBA4 | 
[V:2] g4f4 | 
[V:3] z8 | 
[V:4] z8 | 
[V:1] G4z2d2- | 
[V:2] e2fga2g2- | 
[V:3] z8 | 
[V:4] z2C3B,G,A, | 
[V:1] d2e2f4 | 
[V:2] g2fed4 | 
[V:3] z8 | 
[V:4] B,2C4=B,2 | 
[V:1] e4d2e2- | 
[V:2] c4g4- | 
[V:3] z8 | 
[V:4] C4B,2C2- | 
[V:1] efg2c2f2 | 
[V:2] g4a4 | 
[V:3] z8 | 
[V:4] CB,/A,/G,2F,4 | 
[V:1] e2d4c2- | 
[V:2] g3fd2e2 | 
[V:3] z8 | 
[V:4] G,3A,B,2C2 | 
[V:1] c2BAG4 | 
[V:2] c2f4e2 | 
[V:3] z8 | 
[V:4] F,4z2C2 | 
[V:1] F4E2F2- | 
[V:2] f4z4 | 
[V:3] z8 | 
[V:4] D2B,2C2D2- | 
[V:1] FEDCD4 | 
[V:2] z8 | 
[V:3] z8 | 
[V:4] DCC4=B,2 | 
[V:1] C3DE2F2 | 
[V:2] g6a2- | 
[V:3] z8 | 
[V:4] C4z2F,2 | 
[V:1] E2A4G2- | 
[V:2] agfed4 | 
[V:3] z8 | 
[V:4] C4D2B,2 | 
[V:1] G2F2D2E2 | 
[V:2] e2f3edc | 
[V:3] z8 | 
[V:4] C2D3CC2- | 
[V:1] F4E4 | 
[V:2] d4z2c2 | 
[V:3] z8 | 
[V:4] C2=B,2C4- | 
[V:1] z2c3de2 | 
[V:2] g2a4g2 | 
[V:3] z8 | 
[V:4] C8 | 
[V:1] f4e2f2- | 
[V:2] f2a2g2f2 | 
[V:3] z8 | 
[V:4] z2F,2C2D2 | 
[V:1] f2e2f2d2 | 
[V:2] g4z2g2- | 
[V:3] z8 | 
[V:4] B,2C2D2B,2 | 
[V:1] e2c2f4 | 
[V:2] g2g2a4 | 
[V:3] z8 | 
[V:4] C4F,4 | 
[V:1] e8 ||  
[V:2] g8 ||  
[V:3] z8 ||  
[V:4] C8 ||  
[V:1]  [K:F] [K:clef=treble][M:3/1]z12 | 
[V:2]  [K:F] [K:clef=treble-8][M:3/1]f6e2d4 | 
[V:3]  [K:F] [K:clef=treble-8][M:3/1]z12 | 
[V:4]  [K:F] [K:clef=bass][M:3/1]F,6G,6 | 
[V:1] c6B2A4 | 
[V:2] c4z4z4 | 
[V:3] c6d6 | 
[V:4] A,6G,2F,3E, | 
[V:1] G4A2c3BAG | 
[V:2] z2G2c3de2f2- | 
[V:3] e8c4 | 
[V:4] C,8A,4 | 
[V:1] F4G4B4 | 
[V:2] fedcB8 | 
[V:3] d6e6 | 
[V:4] B,4G,8 | 
[V:1] A2d4c4B2 | 
[V:2] c2F2A4G4 | 
[V:3] f4fedcd4 | 
[V:4] F,4z4z2G,2 | 
[V:1] c8z4 | 
[V:2] z2A3Bc4BA | 
[V:3] c8z4 | 
[V:4] A,2F,4E,D,C,2F,2- | 
[V:1] z4z2f4f2 | 
[V:2] GABcd2c4=B2 | 
[V:3] z12 | 
[V:4] F,2E,2F,E,D,C,D,4 | 
[V:1] e4d8 | 
[V:2] c6BAB4 | 
[V:3] z4z2f4f2 | 
[V:4] C,4z4z4 | 
[V:1] c6=BA=B4 | 
[V:2] c4z4z4 | 
[V:3] e4d8 | 
[V:4] C,4G,8 | 
[V:1] c4z2c3BA2 | 
[V:2] c3BAGF2E2c2- | 
[V:3] c12- | 
[V:4] C,2C3B,A,2G,2F,2 | 
[V:1] G2F2c3BA2G2 | 
[V:2] cBAGF2E2F2G2 | 
[V:3] c12 | 
[V:4] C3B,A,2G,2F,2E,2 | 
[V:1] d3cB2A2f3e | 
[V:2] A4d3cB2A2 | 
[V:3] f12- | 
[V:4] D,12 | 
[V:1] d2c2B2A2G2c2- | 
[V:2] f3ed4z2g2- | 
[V:3] f8e4 | 
[V:4] z4D,4E,2C,2 | 
[V:1] c2B2c2A2B2G2 | 
[V:2] g2g2e2f4e2 | 
[V:3] d4c4B4 | 
[V:4] G,4A,2F,2G,4 | 
[V:1] A4z2A2B2G2 | 
[V:2] f4z2f4e2 | 
[V:3] c4z2c4B2 | 
[V:4] F,4z2F,2G,4 | 
[V:1] A2B3GA2B2G2 | 
[V:2] f2e2f4d2g2 | 
[V:3] c2B2c4B2c2- | 
[V:4] F,2G,2F,4G,2E,2 | 
[V:1] A2BAGFF4E2 | 
[V:2] fed2c8- | 
[V:3] c2B2c2A2G4 | 
[V:4] F,2G,2C,8 | 
[V:1] F12 |]  
[V:2] c12 |]  
[V:3] F12 |]  
[V:4] F,12 |]  



